icon-themes/breeze_svg/cmd/lc_recsearch.svg

<svg viewBox="0 0 24 24" xmlns="http://www.w3.org/2000/svg"><path d="m10 4c-3.3240048 0-6 2.6759952-6 6 0 3.324005 2.6759952 6 6 6 1.481205 0 2.830584-.534682 3.875-1.417969l5.417969 5.417969.707031-.707031-5.417969-5.417969c.883287-1.044416 1.417969-2.393795 1.417969-3.875 0-3.3240048-2.675995-6-6-6zm0 1c2.770005 0 5 2.2299952 5 5 0 2.770005-2.229995 5-5 5-2.7700048 0-5-2.229995-5-5 0-2.7700048 2.2299952-5 5-5z" fill="#4d4d4d"/></svg>

<svg xmlns="http://www.w3.org/2000/svg" viewBox="0 0 24 24">
 <path 
     style="fill:#4d4d4d" 
     d="M 10 4 C 6.6759952 4 4 6.6759952 4 10 C 4 13.324005 6.6759952 16 10 16 C 11.481205 16 12.830584 15.465318 13.875 14.582031 L 19.292969 20 L 20 19.292969 L 14.582031 13.875 C 15.465318 12.830584 16 11.481205 16 10 C 16 6.6759952 13.324005 4 10 4 z M 10 5 C 12.770005 5 15 7.2299952 15 10 C 15 12.770005 12.770005 15 10 15 C 7.2299952 15 5 12.770005 5 10 C 5 7.2299952 7.2299952 5 10 5 z "
     />
 </svg>
